X:48
T:Under the Blankets
M:6/8
L:1/8
N:Play AABA
B:Thompson's Compleat Collection of 200 Favourite Country Dances, vol. 2 (London, 1765)
Z:Transcribed and edited by Flynn Titford-Mock, 2006-9
Z:abc's:AK/Fiddler's Companion
K:C
e2g gfe | f2a agf | e2g gfe | fdd d3 | e2g gfe | f2 a agf | ege dfd | ecc c3 :|
|: gez gez | fdd d3 | fdz fdz | ecc c3 | gez gez | fdd d2d | efg gfe | d3 d2z |]

